svg/food/spatula_fill.svg

<svg xmlns="http://www.w3.org/2000/svg" width="24" height="24" viewBox="0 0 24 24"><g fill="none" fill-rule="evenodd"><path d="M24,0 L24,24 L0,24 L0,0 L24,0 Z M12.5935,23.2578 L12.5819,23.2595 L12.5109,23.295 L12.4919,23.2987 L12.4767,23.295 L12.4057,23.2595 C12.3958,23.2564 12.387,23.259 12.3821,23.2649 L12.378,23.2758 L12.3609,23.7031 L12.3659,23.7235 L12.3769,23.7357 L12.4805,23.8097 L12.4953,23.8136 L12.5071,23.8097 L12.6107,23.7357 L12.6233,23.7197 L12.6267,23.7031 L12.6096,23.2758 C12.6076,23.2657 12.601,23.2593 12.5935,23.2578 Z M12.8584,23.1453 L12.8445,23.1473 L12.6598,23.2397 L12.6499,23.2499 L12.6472,23.2611 L12.6651,23.6906 L12.6699,23.7034 L12.6784,23.7105 L12.8793,23.8032 C12.8914,23.8069 12.9022,23.803 12.9078,23.7952 L12.9118,23.7812 L12.8777,23.1665 C12.8753,23.1546 12.8674,23.147 12.8584,23.1453 Z M12.143,23.1473 C12.1332,23.1424 12.1222,23.1453 12.1156,23.1526 L12.1099,23.1665 L12.0758,23.7812 C12.0751,23.7927 12.0828,23.8019 12.0926,23.8046 L12.1083,23.8032 L12.3092,23.7105 L12.3186,23.7024 L12.3225,23.6906 L12.3404,23.2611 L12.3372,23.2485 L12.3278,23.2397 L12.143,23.1473 Z"/><path fill="#09244B" d="M20.7782,3.22198 C21.7545,4.19829 21.7545,5.7812 20.7782,6.75751 L18.6569,8.87883 C17.932,9.60373 16.8727,9.7904 15.9755,9.43885 L14.2869,11.1275 L14.8415,11.9595 C16.1636,13.9426 15.9021,16.5832 14.2168,18.2685 L10.8787,21.6066 C10.0976,22.3877 8.83131,22.3877 8.05026,21.6066 L2.3934,15.9498 C1.61236,15.1687 1.61235,13.9024 2.3934,13.1214 L5.7315,9.78327 C7.41682,8.09794 10.0574,7.83647 12.0405,9.15855 L12.8727,9.7133 L14.5613,8.02465 C14.2098,7.12752 14.3964,6.0682 15.1213,5.3433 L17.2426,3.22198 C18.219,2.24567 19.8019,2.24567 20.7782,3.22198 Z M11.9393,14.182 C11.5788385,13.8215385 11.0116645,13.7938107 10.6193224,14.0988166 L10.5251,14.182 L8.40381,16.3033 C8.01329,16.6938 8.01329,17.327 8.40381,17.7175 C8.76429923,18.0779615 9.33152645,18.1056893 9.72382152,17.8006834 L9.81803,17.7175 L11.9393,15.5962 C12.3299,15.2057 12.3299,14.5725 11.9393,14.182 Z M9.81803,12.0608 C9.45755,11.7002462 8.89031497,11.6725112 8.4980265,11.9775953 L8.40382,12.0608 L6.2825,14.1821 L6.19931018,14.2763027 C5.89428083,14.6685793 5.92201077,15.2358385 6.2825,15.5963 C6.64298,15.9567615 7.21021503,15.9844893 7.6025035,15.6794834 L7.69671,15.5963 L9.81803,13.475 L9.90122834,13.3807973 C10.2062889,12.9885207 10.1785562,12.4212615 9.81803,12.0608 Z"/></g></svg>

<svg xmlns="http://www.w3.org/2000/svg" width="24" height="24"><g fill="none" fill-rule="evenodd"><path d="M24 0v24H0V0zM12.594 23.258l-.012.002-.071.035-.02.004-.014-.004-.071-.036c-.01-.003-.019 0-.024.006l-.004.01-.017.428.005.02.01.013.104.074.015.004.012-.004.104-.074.012-.016.004-.017-.017-.427c-.002-.01-.009-.017-.016-.018m.264-.113-.014.002-.184.093-.01.01-.003.011.018.43.005.012.008.008.201.092c.012.004.023 0 .029-.008l.004-.014-.034-.614c-.003-.012-.01-.02-.02-.022m-.715.002a.023.023 0 0 0-.027.006l-.006.014-.034.614c0 .012.007.02.017.024l.015-.002.201-.093.01-.008.003-.011.018-.43-.003-.012-.01-.01z"/><path fill="#09244B" d="M20.778 3.222a2.5 2.5 0 0 1 0 3.536l-2.121 2.12a2.5 2.5 0 0 1-2.681.56l-1.69 1.69.556.832a5 5 0 0 1-.625 6.308l-3.338 3.339a2 2 0 0 1-2.829 0L2.393 15.95a2 2 0 0 1 0-2.829l3.339-3.338a5 5 0 0 1 6.309-.624l.832.554 1.688-1.688a2.5 2.5 0 0 1 .56-2.682l2.122-2.121a2.5 2.5 0 0 1 3.535 0m-8.839 10.96a1 1 0 0 0-1.32-.083l-.094.083-2.121 2.121a1 1 0 0 0 1.32 1.498l.094-.083 2.121-2.122a1 1 0 0 0 0-1.414m-2.121-2.121a1 1 0 0 0-1.32-.083l-.094.083-2.121 2.121-.084.094a1 1 0 0 0 1.404 1.403l.094-.083 2.121-2.121.083-.094a1 1 0 0 0-.083-1.32"/></g></svg>
